dist/img/cart.svg

<svg width="24" height="22" viewBox="0 0 24 22" fill="none" xmlns="http://www.w3.org/2000/svg">
<path d="M23.0139 4.00553H4.24885L3.96992 0.897665C3.9243 0.389428 3.49841 0 2.98822 0H0.985638C0.441284 0 0 0.441345 0 0.985775C0 1.5302 0.441284 1.97155 0.985638 1.97155H2.08711C2.68906 8.67867 1.13334 -8.65674 3.22074 14.603C3.30118 15.5134 3.79302 16.5013 4.64029 17.1726C3.11269 19.1236 4.50845 22 6.99334 22C9.05576 22 10.5104 19.9427 9.80316 17.9943H15.1977C14.4913 19.9402 15.9428 22 18.0075 22C19.6552 22 20.9957 20.6593 20.9957 19.0114C20.9957 17.3634 19.6552 16.0227 18.0075 16.0227H7C6.25129 16.0227 5.59885 15.571 5.31724 14.9127L21.0691 13.9869C21.4991 13.9616 21.8629 13.6599 21.9674 13.2419L23.9702 5.23038C24.1254 4.60915 23.6552 4.00553 23.0139 4.00553ZM6.99334 20.0285C6.43265 20.0285 5.97644 19.5722 5.97644 19.0114C5.97644 18.4506 6.43265 17.9943 6.99334 17.9943C7.55407 17.9943 8.01028 18.4506 8.01028 19.0114C8.01028 19.5722 7.55407 20.0285 6.99334 20.0285ZM18.0075 20.0285C17.4467 20.0285 16.9905 19.5722 16.9905 19.0114C16.9905 18.4506 17.4467 17.9943 18.0075 17.9943C18.5682 17.9943 19.0244 18.4506 19.0244 19.0114C19.0244 19.5722 18.5682 20.0285 18.0075 20.0285ZM20.2306 12.0612L5.05191 12.9534L4.4258 5.97703H21.7515L20.2306 12.0612Z" fill="#262626"/>
</svg>

<svg width="24" height="22" fill="none" xmlns="http://www.w3.org/2000/svg"><path d="M23.014 4.006H4.249L3.969.898A.986.986 0 002.99 0H.985a.986.986 0 000 1.972h1.101L3.22 14.603c.08.91.572 1.898 1.42 2.57C3.112 19.123 4.507 22 6.992 22c2.063 0 3.517-2.057 2.81-4.006h5.395C14.49 19.94 15.943 22 18.008 22a2.992 2.992 0 002.988-2.989 2.992 2.992 0 00-2.988-2.988H7a1.83 1.83 0 01-1.683-1.11l15.752-.926a.986.986 0 00.898-.745L23.97 5.23a.986.986 0 00-.956-1.224zM6.994 20.029a1.018 1.018 0 010-2.035 1.018 1.018 0 010 2.035zm11.014 0a1.018 1.018 0 010-2.035 1.018 1.018 0 010 2.035zm2.223-7.968l-15.18.892-.625-6.976h17.326l-1.521 6.084z" fill="#262626"/></svg>
